!!!OTL: Bessie Beauty
!!!ONM: 31.
**kern
*clefG2
*k[b-]
*G:
*M3/4
*MM80
{8d
=1
8g
8a
4.b-
8d
=2
8g
8a
4.b-}
{8b-
=3
8cc
8b-
4.a
8g
=4
8b-
8a
4.g}
{8d
=5
8g
8a
4.b-
8d
=6
8g
8a
4.b-}
{8b-
=7
8cc
8b-
4a
8a
8g
=8
8b-
8a
2g}
==
*-
!!!CNT: Folksongs of Maritime Canada
!!!MRD: 1928///-1932///
!!!OCL: Helen Creighton
!!!YOR: Songs and Ballads from Nova Scotia
!!!PPR: J.M. Dent & Sons, Limited
!!!PPP: Toronto, Canada
!!!PDT: 1932///
!!!reprint: Dover Publications, 1992: ISBN 0-486-21703-5
!!!ENC1: Craig Stuart Sapp (music and bibliographic data)                       
!!!ENC2: Marcus Pearce (phrase markings and key designations)                   
!!!ENC3: Darrell Conklin (phrase markings and key designations)   
!!!END: 2002/04/10/
!!!EEV: 2004/06/05
!!!MPN: Mr. Al Coolen
!!!PPG: 62
!!!EFL: 31/152
!!!ARE: Canada; Nova Scotia
!!!verses: 13
!!!VTS: 3513865644
